X: 26087
T: McDonagh's Air
R: waltz
M: 3/4
K: Gmajor
|:ge|"G"d2B2>A2|B2>c2BA|"Em"G2E3F|"C"G3AB2|
"Em"g2 ef ge|"D"f2 df ed|"Em"B2 e3 d|1 "C"e3f:|2 "C"e4||
|:b2|"Em"b2g3g|"D"f2 a4|ga ba "C"gf|"G"g2 d2 d2|
"Em"b2 g3 g|"D"f2e3d|"Em"B2 e3d|1 "C"e4:|2 "C"e3f||

